neru-light-classic/22x22/actions/address-book-new-symbolic.svg

<?xml version="1.0" encoding="UTF-8" standalone="no"?>
<svg
   xmlns:dc="http://purl.org/dc/elements/1.1/"
   xmlns:cc="http://creativecommons.org/ns#"
   xmlns:rdf="http://www.w3.org/1999/02/22-rdf-syntax-ns#"
   xmlns:svg="http://www.w3.org/2000/svg"
   xmlns="http://www.w3.org/2000/svg"
   xmlns:sodipodi="http://sodipodi.sourceforge.net/DTD/sodipodi-0.dtd"
   xmlns:inkscape="http://www.inkscape.org/namespaces/inkscape"
   width="22"
   height="22"
   viewBox="0 0 22 22"
   version="1.1"
   id="svg7"
   sodipodi:docname="address-book-new-symbolic.svg"
   inkscape:version="0.92.1 r">
  <metadata
     id="metadata11">
    <rdf:RDF>
      <cc:Work
         rdf:about="">
        <dc:format>image/svg+xml</dc:format>
        <dc:type
           rdf:resource="http://purl.org/dc/dcmitype/StillImage" />
        <dc:title></dc:title>
      </cc:Work>
    </rdf:RDF>
  </metadata>
  <sodipodi:namedview
     pagecolor="#ffffff"
     bordercolor="#666666"
     borderopacity="1"
     objecttolerance="10"
     gridtolerance="10"
     guidetolerance="10"
     inkscape:pageopacity="0"
     inkscape:pageshadow="2"
     inkscape:window-width="769"
     inkscape:window-height="480"
     id="namedview9"
     showgrid="false"
     inkscape:zoom="10.727273"
     inkscape:cx="11"
     inkscape:cy="11"
     inkscape:window-x="0"
     inkscape:window-y="0"
     inkscape:window-maximized="0"
     inkscape:current-layer="svg7" />
  <defs
     id="defs3">
    <style
       type="text/css"
       id="current-color-scheme">
   .ColorScheme-Text { color:#1e333d; } .ColorScheme-Highlight { color:#3fb7ff; }
  </style>
  </defs>
  <path
     style="fill:currentColor;opacity:1"
     class="ColorScheme-Text"
     transform="translate(3 3)"
     d="M 3 1.0097656 C 1.892 1.0097656 1 1.9017656 1 3.0097656 L 1 13.009766 C 1 14.117766 1.892 15.009766 3 15.009766 L 13 15.009766 C 14.108 15.009766 15 14.117766 15 13.009766 L 15 3.0097656 C 15 1.9017656 14.108 1.0097656 13 1.0097656 L 3 1.0097656 z M 8 4 C 10.2091 4 12 5.7909 12 8 L 12 8.5 C 12 9.32843 11.32843 10 10.5 10 C 10.05709 10.00022 9.6366925 9.8037238 9.3515625 9.4648438 C 8.9951725 9.7935738 8.52312 10 8 10 C 6.8954 10 6 9.10457 6 8 C 6 6.89543 6.89543 6 8 6 C 9.10457 6 10 6.89543 10 8 L 10 8.5 C 10 8.77614 10.22386 9 10.5 9 C 10.77614 9 11 8.77614 11 8.5 L 11 8 C 11 6.3431 9.6569 5 8 5 C 6.3431 5 5 6.3431 5 8 C 5 9.6568 6.3431 11 8 11 L 10.5 11 C 10.5 11 11 11 11 11.5 C 10.9688 12 10.5 12 10.5 12 L 8 12 C 5.7909 12 4 10.2091 4 8 C 4 5.7909 5.7909 4 8 4 z M 8 7 C 7.44771 7 7 7.44772 7 8 C 7 8.55228 7.44771 9 8 9 C 8.55229 9 9 8.55228 9 8 C 9 7.44772 8.55229 7 8 7 z"
     id="path5" />
</svg>

<svg xmlns="http://www.w3.org/2000/svg" width="22" height="22" version="1.1" id="svg7"><defs id="defs3"><style type="text/css" id="current-color-scheme"></style></defs><path transform="translate(3 3)" d="M3 1.01c-1.108 0-2 .892-2 2v10c0 1.108.892 2 2 2h10c1.108 0 2-.892 2-2v-10c0-1.108-.892-2-2-2H3zM8 4a4 4 0 0 1 4 4v.5a1.5 1.5 0 0 1-2.648.965A1.987 1.987 0 0 1 8 10a2 2 0 1 1 2-2v.5a.5.5 0 0 0 1 0V8a3 3 0 1 0-3 3h2.5s.5 0 .5.5c-.031.5-.5.5-.5.5H8a4 4 0 0 1 0-8zm0 3a1 1 0 1 0 0 2 1 1 0 0 0 0-2z" id="path5" fill="currentColor" opacity="1" color="#1e333d"/></svg>
